X: 28
T: Acemkürdî Aranağme (Curcuna)
C: ?
O: Turkey
F: http://compmusic.upf.edu/node/140
N: acemkurdi--aranagme--curcuna--1--
N: makam= acemkurdi
N: form= aranagme
N: usul= curcuna = 10/8
M: 10/8
L: 1/16
K: C _B   
Q: 1/4=192
%%MIDI tuningsystem comma53
z4 e2f4f2 e2f6  | f4 e2f2 e2e2 d2e6  | \
w:   |   | 
z4 d2e4e2 d2e6  | d2e2 f2e2 d2e2 c2d6  | 
w:   |   | 
z4 c2d4_e4d4c2  | c2d2 _e2d2 c2B2 A2G6  | \
w:   |   | 
z4 A2B4B2 A2_e4d2  | 
w:   | 
c4 d2c2 B2B2 A2A6  | z4 e2f4f2 e2f6  | \
w:   |   | 
f4 e2f2 e2e2 d2e6  | z4 d2e4e2 d2e6  | 
w:   |   | 
d2e2 f2e2 d2e2 c2d6  | z4 c2d4_e4d4c2  | \
w:   |   | 
c2d2 _e2d2 c2B2 A2G6  | 
w:   | 
z4 A2B4B2 A2_e4d2  | c4 d2c2 B2B2 A2A6  | |


